source/img/contacts-icon.svg

<svg width="45" height="45" fill="none" xmlns="http://www.w3.org/2000/svg"><circle cx="22.5" cy="22.5" r="22.5" fill="#121936"/><path fill-rule="evenodd" clip-rule="evenodd" d="M22.5 15.0862c-2.7964 0-5.5996.4726-6.6167 1.4147-.8439.7816-1.1252 2.1624-1.22 3.0366 0 0-.0131.0864-.0131.1236 0 .3428.2943.6178.6541.6178.0425 0 1.6158-.1205 2.5643-.1946.0228-.0032.0458-.0062.0686-.0124.3533-.0092.6379-.2811.6379-.6178l.0032-1.2171c0-.3769.3239-.6796.723-.6796h6.3974c.3991 0 .7231.3027.7231.6796l.0032 1.2171c0 .3367.2846.6086.6378.6178.0227.0062.0457.0092.0688.0124.9486.074 2.5218.1946 2.5641.1946.3597 0 .6542-.275.6542-.6178 0-.0372-.013-.1236-.013-.1236-.0949-.8742-.3759-2.2549-1.2198-3.0366-1.0175-.9421-3.8206-1.4147-6.6171-1.4147zm0 8.0315c-.7228 0-1.3083.5529-1.3083 1.2356 0 .6827.5855 1.2356 1.3083 1.2356.7229 0 1.3083-.5529 1.3083-1.2356 0-.6827-.5854-1.2356-1.3083-1.2356zm-.9812-2.7802v-.7722c0-.4263-.3664-.7723-.8177-.7723s-.8176.3461-.8176.7723v.7722l-4.4125 4.4514c-.304.2811-.4938.6733-.4938 1.1059v1.2387c0 .6827.5855 1.2356 1.3083 1.2356h.3271v.7723c0 .4263.3664.7722.8177.7722s.8177-.3459.8177-.7722v-.7723h8.504v.7723c0 .4263.3663.7722.8178.7722.4513 0 .8176-.3459.8176-.7722v-.7723h.3271c.7228 0 1.3083-.5529 1.3083-1.2356v-1.2387c0-.4326-.1898-.8248-.4939-1.1059l-4.4122-4.4514v-.7722c0-.4263-.3665-.7723-.8178-.7723s-.8176.3461-.8176.7723v.7722h-1.9625zm.9812 1.5446c1.4457 0 2.6167 1.1059 2.6167 2.4712 0 1.3654-1.171 2.4714-2.6167 2.4714-1.4457 0-2.6166-1.106-2.6166-2.4714 0-1.3653 1.1709-2.4712 2.6166-2.4712z" fill="#FFD74B"/></svg>

<svg width="45" height="45" viewBox="0 0 45 45" fill="none" xmlns="http://www.w3.org/2000/svg">
<circle cx="22.5" cy="22.5" r="22.5" fill="#121936"/>
<path fill-rule="evenodd" clip-rule="evenodd" d="M22.5 15.0862C19.7036 15.0862 16.9004 15.5588 15.8833 16.5009C15.0394 17.2825 14.7581 18.6633 14.6633 19.5375C14.6633 19.5375 14.6502 19.6239 14.6502 19.6611C14.6502 20.0039 14.9445 20.2789 15.3043 20.2789C15.3468 20.2789 16.9201 20.1584 17.8686 20.0843C17.8914 20.0811 17.9144 20.0781 17.9372 20.0719C18.2905 20.0627 18.5751 19.7908 18.5751 19.4541L18.5783 18.237C18.5783 17.8601 18.9022 17.5574 19.3013 17.5574H25.6987C26.0978 17.5574 26.4218 17.8601 26.4218 18.237L26.425 19.4541C26.425 19.7908 26.7096 20.0627 27.0628 20.0719C27.0855 20.0781 27.1085 20.0811 27.1316 20.0843C28.0802 20.1583 29.6534 20.2789 29.6957 20.2789C30.0554 20.2789 30.3499 20.0039 30.3499 19.6611C30.3499 19.6239 30.3369 19.5375 30.3369 19.5375C30.242 18.6633 29.961 17.2826 29.1171 16.5009C28.0996 15.5588 25.2965 15.0862 22.5 15.0862ZM22.5 23.1177C21.7772 23.1177 21.1917 23.6706 21.1917 24.3533C21.1917 25.036 21.7772 25.5889 22.5 25.5889C23.2229 25.5889 23.8083 25.036 23.8083 24.3533C23.8083 23.6706 23.2229 23.1177 22.5 23.1177ZM21.5188 20.3375V19.5653C21.5188 19.139 21.1524 18.793 20.7011 18.793C20.2498 18.793 19.8835 19.1391 19.8835 19.5653V20.3375L15.471 24.7889C15.167 25.07 14.9772 25.4622 14.9772 25.8948V27.1335C14.9772 27.8162 15.5627 28.3691 16.2855 28.3691H16.6126V29.1414C16.6126 29.5677 16.979 29.9136 17.4303 29.9136C17.8816 29.9136 18.248 29.5677 18.248 29.1414V28.3691H26.752V29.1414C26.752 29.5677 27.1183 29.9136 27.5698 29.9136C28.0211 29.9136 28.3874 29.5677 28.3874 29.1414V28.3691H28.7145C29.4373 28.3691 30.0228 27.8162 30.0228 27.1335V25.8948C30.0228 25.4622 29.833 25.07 29.5289 24.7889L25.1167 20.3375V19.5653C25.1167 19.139 24.7502 18.793 24.2989 18.793C23.8476 18.793 23.4813 19.1391 23.4813 19.5653V20.3375H21.5188ZM22.5 21.8821C23.9457 21.8821 25.1167 22.988 25.1167 24.3533C25.1167 25.7187 23.9457 26.8247 22.5 26.8247C21.0543 26.8247 19.8834 25.7187 19.8834 24.3533C19.8834 22.988 21.0543 21.8821 22.5 21.8821Z" fill="#FFD74B"/>
</svg>
